X:84
T:La sour?o Guibaudi?ro
O:France
A:Provence
C:Trad.
R:Farandole
M:6/8
Q:3/8=90
K:Bbmajor
B2B F2F|B2d f3|ffg fed|cBc d2B|B2B F2F|B2d f3|ffg fed|cBc B3|
d2d d2f|f=ef c2f|f=ef B3|cdc BAG|FGA B2F|d2d d2f|f=ef c2f|f=ef B3|cdc BAG|FGA B3|]
<end>
<start>
